src/icons/svgs/16/circle-info.svg

<svg width="16" height="16" viewBox="0 0 16 16" fill="none" xmlns="http://www.w3.org/2000/svg">
<path d="M8 1C4.13359 1 1 4.13359 1 8C1 11.8664 4.13359 15 8 15C11.8664 15 15 11.8664 15 8C15 4.13359 11.8664 1 8 1ZM8 4.5C8.48316 4.5 8.875 4.89184 8.875 5.375C8.875 5.85816 8.48316 6.25 8 6.25C7.51684 6.25 7.125 5.85898 7.125 5.375C7.125 4.89102 7.51602 4.5 8 4.5ZM9.09375 11.5H6.90625C6.54531 11.5 6.25 11.2074 6.25 10.8438C6.25 10.4801 6.54395 10.1875 6.90625 10.1875H7.34375V8.4375H7.125C6.7627 8.4375 6.46875 8.14355 6.46875 7.78125C6.46875 7.41895 6.76406 7.125 7.125 7.125H8C8.3623 7.125 8.65625 7.41895 8.65625 7.78125V10.1875H9.09375C9.45605 10.1875 9.75 10.4814 9.75 10.8438C9.75 11.2061 9.45742 11.5 9.09375 11.5Z" fill="black"/>
</svg>

<svg width="16" height="16" viewBox="0 0 16 16" xmlns="http://www.w3.org/2000/svg">
    <path d="M8 1a7 7 0 0 0-7 7 7 7 0 0 0 7 7 7 7 0 0 0 7-7 7 7 0 0 0-7-7Zm0 3.5a.875.875 0 1 1 0 1.75.875.875 0 0 1 0-1.75Zm1.094 7H6.906a.656.656 0 0 1 0-1.313h.438v-1.75h-.219a.656.656 0 0 1 0-1.312H8c.362 0 .656.294.656.656v2.407h.438a.656.656 0 0 1 0 1.312Z"/>
</svg>
